markup/sourceimages/icon20.svg

<svg xmlns="http://www.w3.org/2000/svg" width="51" height="56"><path fill-rule="evenodd" fill="#5393DD" d="M50.073 12.129h-3.709a.931.931 0 0 0-.928.934v.933a.93.93 0 0 0-.927-.933h-2.782a.93.93 0 0 0-.927.871l-.064.995h-1.791v-1.866a.93.93 0 0 0-.927-.934h-3.709a.93.93 0 0 0-.927.934v5.6a.93.93 0 0 0 .927.933h3.709a.93.93 0 0 0 .927-.933v-1.867h1.669l-.506 7.637a1.851 1.851 0 0 1-1.849 1.698h-5.804v-.401a.936.936 0 0 0-.531-.84 14.882 14.882 0 0 0-3.956-1.223.92.92 0 0 0-.441.045 8.984 8.984 0 0 0-1.563-.332v-2.547c.275-.141.541-.299.797-.473 3.116-2.194 5.694-4.398 5.694-9.141v-.957a10.34 10.34 0 0 0-3.226-7.492 10.242 10.242 0 0 0-13.089-.772c-4.028-.73-7.88 1.966-8.605 6.02a7.58 7.58 0 0 0-.117 1.311V23.33a.93.93 0 0 0 .927.934 13.697 13.697 0 0 0 9.52-3.834c.22.146.447.281.68.403v2.547a9.079 9.079 0 0 0-1.564.328.915.915 0 0 0-.44-.045c-1.369.221-2.7.633-3.956 1.223a.936.936 0 0 0-.531.84v.031a22.222 22.222 0 0 0-5.563 14.375c0 2.56.121 5.507.874 7.467H5.564v-1.867a.931.931 0 0 0-.928-.933H.927a.93.93 0 0 0-.927.933v5.601a.93.93 0 0 0 .927.933h3.709a.931.931 0 0 0 .928-.933v-1.867h5.301A14.353 14.353 0 0 0 9.273 56h1.854c.005-1.606.32-3.195.927-4.68v.013c0 .515.416.933.928.933h3.709a.93.93 0 0 0 .927-.933v-3.734h11.61l.534.672A12.474 12.474 0 0 1 32.455 56h1.854a14.349 14.349 0 0 0-3.1-8.895l-.709-.892-.356-1.075a11.725 11.725 0 0 1 .232-7.999l.052-.13a2.915 2.915 0 0 0 2.027-2.618v-.038l10.05-2.167a3.749 3.749 0 0 0 2.931-3.652v-9.871a.93.93 0 0 0 .928.933h3.709a.93.93 0 0 0 .927-.933v-5.6a.93.93 0 0 0-.927-.934zM37.091 17.73h-1.855v-3.734h1.855v3.734zM3.709 50.399H1.854v-3.733h1.855v3.733zm7.186-3.194l.064.397H9.42c-.529-.742-1.075-2.671-1.075-7.47a20.8 20.8 0 0 1 3.709-11.477v5.669c-1.223 2.789-1.629 10.045-1.159 12.881zM21.698 1.879c4.398-.298 8.266 2.902 8.828 7.302l-5.075-2.554a.911.911 0 0 0-.576-.084L14.102 8.456c.762-3.67 3.877-6.367 7.596-6.577zM9.273 22.361V9.329c.003-2.891 2.19-5.305 5.05-5.575a10.32 10.32 0 0 0-2.269 6.508v.957c0 4.004 1.841 6.197 4.288 8.105a11.854 11.854 0 0 1-7.069 3.037zm4.636-11.142v-.833l10.987-1.951 5.699 2.868c-.027 3.476-1.604 5.207-4.897 7.528a5.992 5.992 0 0 1-6.887 0c-3.321-2.341-4.902-4.076-4.902-7.612zm3.709 14.231a7.009 7.009 0 0 1 1.855-.253.93.93 0 0 0 .927-.933v-2.723a7.177 7.177 0 0 0 3.709 0v2.723a.93.93 0 0 0 .927.933c.627.001 1.25.086 1.855.253v1.493l-4.636 1.004-4.637-1.004V25.45zm-5.045 19.454c-.057-2.791.183-5.58.715-8.319.241.168.501.307.775.415.935 2.508.975 5.264.114 7.799h-1.195a.897.897 0 0 0-.409.105zm3.191 5.495h-1.855v-3.733h1.855v3.733zm1.854-4.667a.93.93 0 0 0-.927-.933h-.556a13.523 13.523 0 0 0 0-7.468h12.202a13.609 13.609 0 0 0 .048 8.401H17.618zM30.6 34.391c0 .507-.793 1.074-1.855 1.074H15.764c-1.062 0-1.855-.567-1.855-1.074v-8.053a12.86 12.86 0 0 1 1.855-.61v1.973a.93.93 0 0 0 .732.912l5.564 1.205a.88.88 0 0 0 .389 0l5.564-1.205a.932.932 0 0 0 .732-.912v-1.974c.633.156 1.253.36 1.855.61v8.054zm11.516-4.031l-9.661 2.083v-4.446h5.804a3.706 3.706 0 0 0 3.696-3.418l.64-9.65h.987v13.605a1.875 1.875 0 0 1-1.466 1.826zm7.029-12.63h-1.854v-3.734h1.854v3.734z"/></svg>

<svg 
 xmlns="http://www.w3.org/2000/svg"
 xmlns:xlink="http://www.w3.org/1999/xlink"
 width="51px" height="56px">
<path fill-rule="evenodd"  fill="rgb(83, 147, 221)"
 d="M50.073,12.129 L46.364,12.129 C45.852,12.129 45.436,12.547 45.436,13.063 L45.436,13.996 C45.436,13.481 45.021,13.063 44.509,13.063 L41.727,13.063 C41.238,13.062 40.832,13.443 40.800,13.934 L40.736,14.929 L38.945,14.929 L38.945,13.063 C38.945,12.547 38.530,12.129 38.018,12.129 L34.309,12.129 C33.797,12.129 33.382,12.547 33.382,13.063 L33.382,18.663 C33.382,19.179 33.797,19.596 34.309,19.596 L38.018,19.596 C38.530,19.596 38.945,19.179 38.945,18.663 L38.945,16.796 L40.614,16.796 L40.108,24.433 C40.025,25.397 39.221,26.136 38.259,26.131 L32.455,26.131 L32.455,25.730 C32.453,25.371 32.247,25.044 31.924,24.890 C30.668,24.300 29.337,23.888 27.968,23.667 C27.820,23.646 27.668,23.661 27.527,23.712 C27.017,23.555 26.493,23.444 25.964,23.380 L25.964,20.833 C26.239,20.692 26.505,20.534 26.761,20.360 C29.877,18.166 32.455,15.962 32.455,11.219 L32.455,10.262 C32.450,7.424 31.283,4.714 29.229,2.770 C25.614,-0.613 20.122,-0.937 16.140,1.998 C12.112,1.268 8.260,3.964 7.535,8.018 C7.458,8.451 7.419,8.889 7.418,9.329 L7.418,23.330 C7.418,23.846 7.833,24.264 8.345,24.264 C11.891,24.270 15.302,22.896 17.865,20.430 C18.085,20.576 18.312,20.711 18.545,20.833 L18.545,23.380 C18.015,23.443 17.492,23.553 16.981,23.708 C16.840,23.657 16.689,23.642 16.541,23.663 C15.172,23.884 13.841,24.296 12.585,24.886 C12.262,25.040 12.056,25.367 12.054,25.726 L12.054,25.757 C8.548,29.722 6.573,34.824 6.491,40.132 C6.491,42.692 6.612,45.639 7.365,47.599 L5.564,47.599 L5.564,45.732 C5.564,45.217 5.148,44.799 4.636,44.799 L0.927,44.799 C0.415,44.799 -0.000,45.217 -0.000,45.732 L-0.000,51.333 C-0.000,51.848 0.415,52.266 0.927,52.266 L4.636,52.266 C5.148,52.266 5.564,51.848 5.564,51.333 L5.564,49.466 L10.865,49.466 C9.825,51.485 9.279,53.725 9.273,56.000 L11.127,56.000 C11.132,54.394 11.447,52.805 12.054,51.320 L12.054,51.333 C12.054,51.848 12.470,52.266 12.982,52.266 L16.691,52.266 C17.203,52.266 17.618,51.848 17.618,51.333 L17.618,47.599 L29.228,47.599 L29.762,48.271 C31.502,50.467 32.451,53.191 32.455,56.000 L34.309,56.000 C34.305,52.767 33.212,49.632 31.209,47.105 L30.500,46.213 L30.144,45.138 C29.281,42.528 29.363,39.694 30.376,37.139 L30.428,37.009 C31.579,36.646 32.386,35.603 32.455,34.391 L32.455,34.353 L42.505,32.186 C44.211,31.809 45.429,30.292 45.436,28.534 L45.436,18.663 C45.436,19.179 45.852,19.596 46.364,19.596 L50.073,19.596 C50.585,19.596 51.000,19.179 51.000,18.663 L51.000,13.063 C51.000,12.547 50.585,12.129 50.073,12.129 ZM37.091,17.730 L35.236,17.730 L35.236,13.996 L37.091,13.996 L37.091,17.730 ZM3.709,50.399 L1.854,50.399 L1.854,46.666 L3.709,46.666 L3.709,50.399 ZM10.895,47.205 L10.959,47.602 L9.420,47.602 C8.891,46.860 8.345,44.931 8.345,40.132 C8.422,36.020 9.713,32.025 12.054,28.655 L12.054,34.324 C10.831,37.113 10.425,44.369 10.895,47.205 ZM21.698,1.879 C26.096,1.581 29.964,4.781 30.526,9.181 L25.451,6.627 C25.273,6.537 25.071,6.507 24.875,6.543 L14.102,8.456 C14.864,4.786 17.979,2.089 21.698,1.879 ZM9.273,22.361 L9.273,9.329 C9.276,6.438 11.463,4.024 14.323,3.754 C12.844,5.596 12.043,7.895 12.054,10.262 L12.054,11.219 C12.054,15.223 13.895,17.416 16.342,19.324 C14.385,21.096 11.898,22.164 9.273,22.361 ZM13.909,11.219 L13.909,10.386 L24.896,8.435 L30.595,11.303 C30.568,14.779 28.991,16.510 25.698,18.831 C23.629,20.282 20.880,20.282 18.811,18.831 C15.490,16.490 13.909,14.755 13.909,11.219 ZM17.618,25.450 C18.223,25.283 18.846,25.198 19.473,25.197 C19.985,25.197 20.400,24.779 20.400,24.264 L20.400,21.541 C21.615,21.866 22.894,21.866 24.109,21.541 L24.109,24.264 C24.109,24.779 24.524,25.197 25.036,25.197 C25.663,25.198 26.286,25.283 26.891,25.450 L26.891,26.943 L22.255,27.947 L17.618,26.943 L17.618,25.450 ZM12.573,44.904 C12.516,42.113 12.756,39.324 13.288,36.585 C13.529,36.753 13.789,36.892 14.063,37.000 C14.998,39.508 15.038,42.264 14.177,44.799 L12.982,44.799 C12.839,44.801 12.699,44.837 12.573,44.904 ZM15.764,50.399 L13.909,50.399 L13.909,46.666 L15.764,46.666 L15.764,50.399 ZM17.618,45.732 C17.618,45.217 17.203,44.799 16.691,44.799 L16.135,44.799 C16.836,42.360 16.836,39.771 16.135,37.331 L28.337,37.331 C27.467,40.066 27.483,43.008 28.385,45.732 L17.618,45.732 ZM30.600,34.391 C30.600,34.898 29.807,35.465 28.745,35.465 L15.764,35.465 C14.702,35.465 13.909,34.898 13.909,34.391 L13.909,26.338 C14.511,26.088 15.131,25.884 15.764,25.728 L15.764,27.701 C15.763,28.140 16.069,28.521 16.496,28.613 L22.060,29.818 C22.188,29.847 22.321,29.847 22.449,29.818 L28.013,28.613 C28.440,28.521 28.745,28.140 28.745,27.701 L28.745,25.727 C29.378,25.883 29.998,26.087 30.600,26.337 L30.600,34.391 L30.600,34.391 ZM42.116,30.360 L32.455,32.443 L32.455,27.997 L38.259,27.997 C40.189,28.003 41.798,26.515 41.955,24.579 L42.595,14.929 L43.582,14.929 L43.582,28.534 L43.582,28.534 C43.578,29.413 42.969,30.172 42.116,30.360 ZM49.145,17.730 L47.291,17.730 L47.291,13.996 L49.145,13.996 L49.145,17.730 Z"/>
</svg>
